app/assets/v2/images/how-it-works/icons/contest.svg

<svg height="44" width="427" xmlns="http://www.w3.org/2000/svg"><g fill="none" fill-rule="evenodd"><g fill="#3e00ff" fill-rule="nonzero" stroke="#3e00ff"><g><path d="m11.5 22c-5.79 0-10.5-4.71-10.5-10.5s4.71-10.5 10.5-10.5 10.5 4.71 10.5 10.5-4.71 10.5-10.5 10.5zm0-20.276c-5.39 0-9.776 4.386-9.776 9.776s4.386 9.776 9.776 9.776 9.776-4.386 9.776-9.776-4.386-9.776-9.776-9.776z"/><path d="m16.931 17.655a.362.362 0 0 1 -.362-.362c0-2.995-2.274-5.43-5.069-5.43s-5.069 2.435-5.069 5.43a.362.362 0 0 1 -.724 0c0-3.394 2.599-6.155 5.793-6.155s5.793 2.761 5.793 6.155c0 .2-.162.362-.362.362zm-5.431-7.965a2.9 2.9 0 0 1 -2.897-2.897 2.9 2.9 0 0 1 2.897-2.896 2.9 2.9 0 0 1 2.897 2.896 2.9 2.9 0 0 1 -2.897 2.897zm0-5.07a2.175 2.175 0 0 0 -2.172 2.173c0 1.198.974 2.173 2.172 2.173a2.175 2.175 0 0 0 2.172-2.173 2.175 2.175 0 0 0 -2.172-2.172z"/></g><g><path d="m38.5 22c-5.79 0-10.5-4.71-10.5-10.5s4.71-10.5 10.5-10.5 10.5 4.71 10.5 10.5-4.71 10.5-10.5 10.5zm0-20.276c-5.39 0-9.776 4.386-9.776 9.776s4.386 9.776 9.776 9.776 9.776-4.386 9.776-9.776-4.386-9.776-9.776-9.776z"/><path d="m43.931 17.655a.362.362 0 0 1 -.362-.362c0-2.995-2.274-5.43-5.069-5.43s-5.069 2.435-5.069 5.43a.362.362 0 0 1 -.724 0c0-3.394 2.599-6.155 5.793-6.155s5.793 2.761 5.793 6.155c0 .2-.162.362-.362.362zm-5.431-7.965a2.9 2.9 0 0 1 -2.897-2.897 2.9 2.9 0 0 1 2.897-2.896 2.9 2.9 0 0 1 2.897 2.896 2.9 2.9 0 0 1 -2.897 2.897zm0-5.07a2.175 2.175 0 0 0 -2.172 2.173c0 1.198.974 2.173 2.172 2.173a2.175 2.175 0 0 0 2.172-2.173 2.175 2.175 0 0 0 -2.172-2.172z"/></g><g><path d="m24.5 43c-5.79 0-10.5-4.71-10.5-10.5s4.71-10.5 10.5-10.5 10.5 4.71 10.5 10.5-4.71 10.5-10.5 10.5zm0-20.276c-5.39 0-9.776 4.386-9.776 9.776s4.386 9.776 9.776 9.776 9.776-4.386 9.776-9.776-4.386-9.776-9.776-9.776z"/><path d="m29.931 38.655a.362.362 0 0 1 -.362-.362c0-2.995-2.274-5.43-5.069-5.43s-5.069 2.435-5.069 5.43a.362.362 0 0 1 -.724 0c0-3.394 2.599-6.155 5.793-6.155s5.793 2.761 5.793 6.155c0 .2-.162.362-.362.362zm-5.431-7.965a2.9 2.9 0 0 1 -2.897-2.897 2.9 2.9 0 0 1 2.897-2.896 2.9 2.9 0 0 1 2.897 2.896 2.9 2.9 0 0 1 -2.897 2.897zm0-5.07a2.175 2.175 0 0 0 -2.172 2.173c0 1.198.974 2.173 2.172 2.173a2.175 2.175 0 0 0 2.172-2.173 2.175 2.175 0 0 0 -2.172-2.172z"/></g></g><text fill="#4a4a4a" font-family="Muli" font-size="14" font-style="italic" letter-spacing=".179" transform="translate(-185 -4536)"><tspan x="244" y="4558">Multiple Contributors</tspan></text><g fill="#3e00ff" fill-rule="nonzero" stroke="#3e00ff"><path d="m247.5 32c-7.995 0-14.5-6.505-14.5-14.5s6.505-14.5 14.5-14.5 14.5 6.505 14.5 14.5-6.505 14.5-14.5 14.5zm0-28c-7.444 0-13.5 6.056-13.5 13.5s6.056 13.5 13.5 13.5 13.5-6.056 13.5-13.5-6.056-13.5-13.5-13.5z"/><path d="m255 26a.5.5 0 0 1 -.5-.5c0-4.136-3.14-7.5-7-7.5s-7 3.364-7 7.5a.5.5 0 0 1 -1 0c0-4.687 3.589-8.5 8-8.5s8 3.813 8 8.5a.5.5 0 0 1 -.5.5zm-7.5-11c-2.206 0-4-1.794-4-4s1.794-4 4-4 4 1.794 4 4-1.794 4-4 4zm0-7c-1.654 0-3 1.346-3 3s1.346 3 3 3 3-1.346 3-3-1.346-3-3-3z"/></g><text fill="#4a4a4a" font-family="Muli" font-size="14" font-style="italic" letter-spacing=".179" transform="translate(-185 -4536)"><tspan x="462" y="4558">One Contributor Paid*</tspan></text></g></svg>

<svg width="427" height="44" xmlns="http://www.w3.org/2000/svg"><g fill="none" fill-rule="evenodd"><g fill="#3E00FF" fill-rule="nonzero" stroke="#3E00FF"><path d="M11.5 22C5.71 22 1 17.29 1 11.5S5.71 1 11.5 1 22 5.71 22 11.5 17.29 22 11.5 22zm0-20.276c-5.39 0-9.776 4.386-9.776 9.776s4.386 9.776 9.776 9.776 9.776-4.386 9.776-9.776S16.89 1.724 11.5 1.724z"/><path d="M16.931 17.655a.362.362 0 0 1-.362-.362c0-2.995-2.274-5.43-5.069-5.43s-5.069 2.435-5.069 5.43a.362.362 0 0 1-.724 0c0-3.394 2.599-6.155 5.793-6.155s5.793 2.761 5.793 6.155c0 .2-.162.362-.362.362zM11.5 9.69a2.9 2.9 0 0 1-2.897-2.897A2.9 2.9 0 0 1 11.5 3.897a2.9 2.9 0 0 1 2.897 2.896A2.9 2.9 0 0 1 11.5 9.69zm0-5.07a2.175 2.175 0 0 0-2.172 2.173c0 1.198.974 2.173 2.172 2.173a2.175 2.175 0 0 0 2.172-2.173A2.175 2.175 0 0 0 11.5 4.621z"/></g><g fill="#3E00FF" fill-rule="nonzero" stroke="#3E00FF"><path d="M38.5 22C32.71 22 28 17.29 28 11.5S32.71 1 38.5 1 49 5.71 49 11.5 44.29 22 38.5 22zm0-20.276c-5.39 0-9.776 4.386-9.776 9.776s4.386 9.776 9.776 9.776 9.776-4.386 9.776-9.776S43.89 1.724 38.5 1.724z"/><path d="M43.931 17.655a.362.362 0 0 1-.362-.362c0-2.995-2.274-5.43-5.069-5.43s-5.069 2.435-5.069 5.43a.362.362 0 0 1-.724 0c0-3.394 2.599-6.155 5.793-6.155s5.793 2.761 5.793 6.155c0 .2-.162.362-.362.362zM38.5 9.69a2.9 2.9 0 0 1-2.897-2.897A2.9 2.9 0 0 1 38.5 3.897a2.9 2.9 0 0 1 2.897 2.896A2.9 2.9 0 0 1 38.5 9.69zm0-5.07a2.175 2.175 0 0 0-2.172 2.173c0 1.198.974 2.173 2.172 2.173a2.175 2.175 0 0 0 2.172-2.173A2.175 2.175 0 0 0 38.5 4.621z"/></g><g fill="#3E00FF" fill-rule="nonzero" stroke="#3E00FF"><path d="M24.5 43C18.71 43 14 38.29 14 32.5S18.71 22 24.5 22 35 26.71 35 32.5 30.29 43 24.5 43zm0-20.276c-5.39 0-9.776 4.386-9.776 9.776s4.386 9.776 9.776 9.776 9.776-4.386 9.776-9.776-4.386-9.776-9.776-9.776z"/><path d="M29.931 38.655a.362.362 0 0 1-.362-.362c0-2.995-2.274-5.43-5.069-5.43s-5.069 2.435-5.069 5.43a.362.362 0 0 1-.724 0c0-3.394 2.599-6.155 5.793-6.155s5.793 2.761 5.793 6.155c0 .2-.162.362-.362.362zM24.5 30.69a2.9 2.9 0 0 1-2.897-2.897 2.9 2.9 0 0 1 2.897-2.896 2.9 2.9 0 0 1 2.897 2.896A2.9 2.9 0 0 1 24.5 30.69zm0-5.07a2.175 2.175 0 0 0-2.172 2.173c0 1.198.974 2.173 2.172 2.173a2.175 2.175 0 0 0 2.172-2.173 2.175 2.175 0 0 0-2.172-2.172z"/></g><text font-family="Muli" font-size="14" font-style="italic" letter-spacing=".179" fill="#4A4A4A" transform="translate(-185 -4536)"><tspan x="244" y="4558">Multiple Contributors</tspan></text><g fill="#3E00FF" fill-rule="nonzero" stroke="#3E00FF"><path d="M247.5 32c-7.995 0-14.5-6.505-14.5-14.5S239.505 3 247.5 3 262 9.505 262 17.5 255.495 32 247.5 32zm0-28c-7.444 0-13.5 6.056-13.5 13.5S240.056 31 247.5 31 261 24.944 261 17.5 254.944 4 247.5 4z"/><path d="M255 26a.5.5 0 0 1-.5-.5c0-4.136-3.14-7.5-7-7.5s-7 3.364-7 7.5a.5.5 0 0 1-1 0c0-4.687 3.589-8.5 8-8.5s8 3.813 8 8.5a.5.5 0 0 1-.5.5zM247.5 15c-2.206 0-4-1.794-4-4s1.794-4 4-4 4 1.794 4 4-1.794 4-4 4zm0-7c-1.654 0-3 1.346-3 3s1.346 3 3 3 3-1.346 3-3-1.346-3-3-3z"/></g><text font-family="Muli" font-size="14" font-style="italic" letter-spacing=".179" fill="#4A4A4A" transform="translate(-185 -4536)"><tspan x="462" y="4558">One Contributor Paid*</tspan></text></g></svg>
